build/finance/PlatinumSolid.svg

<svg xmlns="http://www.w3.org/2000/svg" fill="none" viewBox="0 0 24 24" focusable="false"><path d="M0 0H24V24H0z"/><path fill="#74767B" fill-rule="evenodd" d="M5.00018 5.005C3.34328 5.005 2.00012 6.34822 2.00018 8.00512L2.00049 15.9951C2.00056 17.6519 3.34369 18.995 5.00049 18.995L19 18.995C20.6569 18.995 22 17.6518 22 15.9949L21.9996 8.00489C21.9996 6.34808 20.6564 5.005 18.9996 5.005L5.00018 5.005ZM6.05005 15.3746L6.05005 12.9541L6.04999 12.9448L6.05005 12.9356L6.05005 9.32534C6.05005 8.57975 6.65447 7.97534 7.40006 7.97534L9.26159 7.97536C10.8134 7.97537 12.0713 9.23333 12.0713 10.7851C12.0713 12.3369 10.8134 13.5948 9.26157 13.5948L7.35005 13.5948L7.35005 15.3746C7.35005 15.7336 7.05904 16.0246 6.70005 16.0246C6.34107 16.0246 6.05005 15.7336 6.05005 15.3746ZM7.35005 9.32534L7.35005 12.2948L9.26157 12.2948C10.0954 12.2948 10.7713 11.6189 10.7713 10.7851C10.7713 9.9513 10.0954 9.27536 9.26158 9.27535L7.40005 9.27534C7.37244 9.27534 7.35005 9.29773 7.35005 9.32534ZM16.3202 8.75653C16.3202 8.39755 16.0292 8.10653 15.6702 8.10653C15.3112 8.10653 15.0202 8.39755 15.0202 8.75653L15.0202 10.0005L14.0346 10.0005C13.6756 10.0005 13.3846 10.2915 13.3846 10.6505C13.3846 11.0094 13.6756 11.3005 14.0346 11.3005L15.0202 11.3005L15.0202 14.0895C15.0202 15.1664 15.8933 16.0395 16.9702 16.0395L17.9928 16.0395C18.3518 16.0395 18.6428 15.7485 18.6428 15.3895C18.6428 15.0305 18.3518 14.7395 17.9928 14.7395L16.9702 14.7395C16.6112 14.7395 16.3202 14.4485 16.3202 14.0895L16.3202 11.3005L17.3826 11.3005C17.7416 11.3005 18.0326 11.0094 18.0326 10.6505C18.0326 10.2915 17.7416 10.0005 17.3826 10.0005L16.3202 10.0005L16.3202 8.75653Z"/></svg>

<svg xmlns="http://www.w3.org/2000/svg" fill="none" viewBox="0 0 24 24" focusable="false"><path fill="#74767B" fill-rule="evenodd" d="M5 5C3.34 5 2 6.34 2 8v7.99c0 1.66 1.34 3 3 3h14c1.65 0 3-1.34 3-3L21.99 8c0-1.66-1.34-3-3-3zm1.05 10.37v-2.42l-.01-.01.01-.01V9.32c0-.75.6-1.35 1.35-1.35h1.86c1.55 0 2.81 1.26 2.81 2.81s-1.26 2.81-2.81 2.81H7.35v1.78c0 .36-.3.65-.65.65-.36 0-.65-.29-.65-.65m1.3-6.05v2.97h1.91c.83 0 1.51-.68 1.51-1.51s-.68-1.51-1.51-1.51H7.4c-.03 0-.05.02-.05.05m8.97-.57c0-.36-.3-.65-.65-.65-.36 0-.65.29-.65.65V10h-.99c-.36 0-.65.29-.65.65 0 .35.29.65.65.65h.99v2.78c0 1.08.87 1.95 1.95 1.95h1.02c.36 0 .65-.29.65-.65 0-.35-.29-.65-.65-.65h-1.02c-.36 0-.65-.29-.65-.65V11.3h1.06c.36 0 .65-.3.65-.65 0-.36-.29-.65-.65-.65h-1.06z"/></svg>
